X:1
T:Title
%%score { ( 1 3 ) | ( 2 4 ) }
L:1/8
M:2/4
K:C
V:1 treble nm="Grand Piano"
V:3 treble 
V:2 bass 
V:4 bass 
V:1
 z2 z[Q:1/4=94] G | c4 | c4 | ee dd |[M:3/8] [Ec]3 |[M:1/8] [Ec] |[M:2/4] [Fc]>[Fc] [GB][FA] | %7
 [EG][EG] [Gc][Gc] | .d2 z2 |[M:3/8] d2[K:bass] z |[M:1/8][K:treble] [FG] |[M:2/4] c4 | c4 | %13
 ee dd |[M:3/8] c3 |[M:1/8] [_Bc] |[M:2/4] [Ad]>[Ac] [GB][FA] | [EG][EG] [Gc][Ad] | e2 d2 | %19
[M:3/8] [Ec]3 |] %20
V:2
 z4 | z [C,G,] .[C,G,]2 | z [C,G,] [C,G,][K:treble][G,B,G] | [CG][CG] [G,B,F][G,F] | %4
[M:3/8][K:bass] [C,G,]3 |[M:1/8] [C,G,] |[M:2/4] [F,A,]>[F,A,] [F,C][F,C] | [C,C][C,C] [E,C][E,C] | %8
 z2[K:treble] [DG]2 |[M:3/8] [B,G]2 z |[M:1/8][K:bass] [D,B,] |[M:2/4] [C,C][C,G,] .[C,G,]2 | %12
 z [C,G,] [C,G,][K:treble][G,B,G] | [CG][CG] [G,B,F][^G,B,E] |[M:3/8][K:bass] [A,CE]3 | %15
[M:1/8] [G,E] |[M:2/4] [F,F]>[F,F] [F,C][F,C] | [C,C][C,C] [E,C][F,C] | .[G,CG]2 .[G,A,F]2 | %19
[M:3/8][K:bass] [C,C]3 |] %20
V:3
 x4 | z E EG | z E Ed | x4 |[M:3/8] x3 |[M:1/8] x |[M:2/4] x4 | x4 | ^F-[FA] Bc | %9
[M:3/8] z[K:bass] F,E, |[M:1/8][K:treble] x |[M:2/4] EE EG | z E Ed | x4 |[M:3/8] x3 |[M:1/8] x | %16
[M:2/4] x4 | x4 | z B, z B, |[M:3/8] x3 |] %20
V:4
 x4 | x4 | x3[K:treble] x | x4 |[M:3/8][K:bass] x3 |[M:1/8] x |[M:2/4] x4 | x4 | %8
 [D,A,][K:treble][CD] B,A, |[M:3/8] G, z z |[M:1/8][K:bass] x |[M:2/4] x4 | x3[K:treble] x | x4 | %14
[M:3/8][K:bass] x3 |[M:1/8] x |[M:2/4] x4 | x4 | x4 |[M:3/8][K:bass] x3 |] %20

